svgs/regular/subscript.svg

<svg xmlns="http://www.w3.org/2000/svg" viewBox="0 0 512 512"><!--! Font Awesome Pro 6.1.1 by @fontawesome - https://fontawesome.com License - https://fontawesome.com/license (Commercial License) Copyright 2022 Fonticons, Inc. --><path d="M328 112C341.3 112 352 101.3 352 88S341.3 64 328 64L288 64.01c-8.031 0-15.53 3.993-19.97 10.68L176 212.7L83.97 74.69C79.53 68 72.03 64.01 64 64.01L24 64C10.75 64 0 74.75 0 88S10.75 112 24 112h27.16l96 144l-96 144H24C10.75 400 0 410.8 0 424S10.75 448 24 448L64 448c8.031 0 15.53-4.007 19.97-10.69L176 299.3l92.03 138C272.5 444 279.1 448 288 448L328 448c13.25 0 24-10.75 24-24s-10.75-24-24-24h-27.16l-96-144l96-144H328zM488 464h-16V312C472 298.8 461.3 288 448 288h-40C394.8 288 384 298.8 384 312s10.75 24 24 24h16v128h-16c-13.25 0-24 10.75-24 24S394.8 512 408 512h80c13.25 0 24-10.75 24-24S501.3 464 488 464z"/></svg>

<svg xmlns="http://www.w3.org/2000/svg" viewBox="0 0 512 512"><!--! Font Awesome Pro 6.4.2 by @fontawesome - https://fontawesome.com License - https://fontawesome.com/license (Commercial License) Copyright 2023 Fonticons, Inc. --><path d="M24 64C10.7 64 0 74.7 0 88s10.7 24 24 24H51.2l96 144-96 144H24c-13.3 0-24 10.7-24 24s10.7 24 24 24H64c8 0 15.5-4 20-10.7l92-138 92 138C272.5 444 280 448 288 448h40c13.3 0 24-10.7 24-24s-10.7-24-24-24H300.8l-96-144 96-144H328c13.3 0 24-10.7 24-24s-10.7-24-24-24H288c-8 0-15.5 4-20 10.7l-92 138L84 74.7C79.5 68 72 64 64 64H24zM472 312c0-8-3.9-15.4-10.5-19.9s-15-5.4-22.4-2.4l-40 16c-12.3 4.9-18.3 18.9-13.4 31.2s18.9 18.3 31.2 13.4l7.1-2.8V464H408c-13.3 0-24 10.7-24 24s10.7 24 24 24h40 40c13.3 0 24-10.7 24-24s-10.7-24-24-24H472V312z"/></svg>
